X: 37807
T: Sonny Brogan's
R: jig
M: 6/8
K: Adorian
|:EAB c2A|dcd e2A|AGA cde|dcA GED|
EAB c2A|dcd efg|aba ged|cAA A2D:|
|:eaa a3|gef g3|eaa aed|ged cAG||
eae aef|gef gfg|aba ged|cAA A2D:|

